X:1
T:Sonata -
T:A Viola, o Violoncello Solo - Del Sig.r Luigi Boccherini
%%score ( 1 2 ) ( 3 4 )
L:1/8
Q:1/4=80
M:4/4
K:Eb
V:1 alto nm="Viola"
V:2 alto 
V:3 bass nm="Violoncello"
V:4 bass 
V:1
!f!"^Moderato" [G,Ec] G2!p! A{/G} F/=E/{/G}F/E/{E} F2 |!f! [G,Fd] F2!p! G{/F} _E/D/{/F}E/D/{D} E2 | %2
 c =B2 c d c2 d | (e2!f! d)c (3=B/d/B/(3G/D/B,/ G, z |[K:tenor]!p! E D2 E F E2 F | %5
 G2 FE E/D/ D2 z |[K:alto]!f! B>c B/e/e/d/ c2 B2 | B4 x2 B2 | B>c B/e/e/d/{d} c2 B2 | %9
{/B} AG/F/{/A} GF/E/ D/B/E/B/ F/B/G/B/ | A/B/F/B/ G/B/E/B/ D/B/E/B/ F/B/G/B/ | %11
 A/B/F/B/ G/B/E/B/ B[K:tenor] D/>D/ D z |!p! c2 B/A/G/F/ (=EFEF) | (_GF=EF) (GFEF) | %14
 B2 A/G/F/E/ (DEDE) | (FEDE) (FEDE) | B,2 C2 D2 E2 | FG[K:alto] =AB c2 d2 | %18
 (3e/c/=A/(E/A/ F/A/ _G/A/) (3e/c/A/(E/A/ F/A/ G/A/) | %19
 (3e/c/=A/(E/A/ F/A/ _G/A/) B>A B !fermata!z | x4 x B3 | x4 x B3 | %22
 (=B/<c/)(G/<A/) (=E/<F/)(G/<A/) (_B/<c/)(d/<e/) (d/<e/)(d/<e/) | B,2 PF2 E2 z2 | x4 x B3 | %25
 x4 x B3 | (=B/<c/)(G/<A/) (=E/<F/)(G/<A/) (_B/<c/)(d/<e/) (d/<e/)(d/<e/) | B,2 PF2 EE,E, z :: %28
 B2 c2 _d B2 c | _d/c/ c2 B (_A/c/B/A/) (G/A/B/c/) | d/e/f/e/ d/c/B/A/ G/B/A/G/ F/G/A/B/ | %31
 c/d/e/d/ c/B/A/G/ F/A/G/F/ E/F/G/A/ | =B/c/d/c/ B/_A/G/F/ _E/G/F/E/ D/E/F/G/ | %33
 _A/=B/c/B/ c/G/E/C/"^arpeggio" G,/D/B/D/ G,/D/B/D/ | [G,Ec]2 [G,Ec]2 [G,Dc]4 | [G,D=B]4 [G,Fd]4 | %36
 [G,=Ed]4 [G,Ec]4 | [G,_Ec]8 | [_A,Ec]4 [G,Ec]4 | ^F,/A,/C/_E/ ^F/A/c/e/ e2 dc | %40
 Pc3 =B/A/ !fermata!G2 z2 | [G,Ec] G2 A{/G} F/=E/{/G}F/E/{E} F2 | %42
 [G,Fd] F2 G{/F} _E/D/{/F}E/D/{D} E2 | c =B2 c d c2 d | e2 dc (3=B/d/B/(3G/D/B,/ G, z | %45
[K:tenor] E D2 E F E2 F | G2 FE E/D/ D2 z |[K:alto] FF/>F/ Fc =B>c d2- | %48
 d/c/=B/_A/ G/F/_E/D/ _E>F GG | x4 x G3 | x4 x G3 | %51
 (G/<A/)(=E/<F/) (C/<_D/)(=E/<F/) (G/<A/)(=B/<c/) (B/<c/)(B/<c/) | G,2 PD2 C2 z2 | x4 x G3 | %54
 x4 x G3 | (G/<A/)(=E/<F/) (C/<_D/)(=E/<F/) (G/<A/)(=B/<c/) (B/<c/)(B/<c/) | G,2 PD2 CC,C, z :| %57
[M:4/4][Q:1/4=40]"^Largo" [G,Ec] G/>E/ CG G/4F/4FF/- F/4_A/4G/4F/4{/G}F/4E/4{/F}E/4D/4 | %58
 [G,Ec] G/>E/ CG G/4F/4FF/- F/4_A/4G/4F/4{/G}F/4E/4{/F}E/4D/4 | CDEF GAGA | %60
 G/4E/4D/4E/4F/4G/4A/4=B/4 c/4d/4e/4d/4c/4G/4E/4C/4 G,[K:tenor](3E/D/E/{/E} D z |[K:alto] B4 B4 | %62
 BA/4G/4F/4E/4{/=B} c/c/-c/4d/4e/4d/4 c/4d/4=A/4!courtesy!_B/4 B>EG/B/ | %63
 B/=A_AG_G/ F/D/E/c/ (B/4!courtesy!=G/4A/4F/4)PF | %64
 EF/(F/4>E/4) EA/(A/4>G/4) Gc/(c/4>B/4) (B/4G/4A/4F/4)PF | %65
 EF/(F/4>E/4) EA/(A/4>G/4) Gc/(c/4>B/4) B/4e/4c/4=A/4B/4G/4_A/4F/4 | %66
 G/4=D/4E/4B,/4_C/4=A,/4B,/4G,/4 _A,/4!courtesy!=C/4D/4F/4A/4B/4d/4f/4 f/4e/4d/4c/4B/4_A/4G/4F/4 G/A/4F/4G/E/ | %67
 E2{DE} PF2 E2 z2 :| eB/>G/ EB (3B/G/=E/ E2 _d |{/_d} cB_AG (3A/c/A/(3F/C/_A,/ F, z | %70
 _dd- (3d/f/e/(3d/c/=B/{/d} (3_c/=B/c/{/d}(3c/B/c/ (3c/e/_d/(3c/_B/=A/ | %71
{/c} (3B/=A/B/{/c}(3B/A/B/ (3B/_d/c/(3B/_A/G/{/B} (3A/G/A/{/B}(3A/G/A/ _GF | =EFB_A{/B} AG z2 | %73
 FF/>F/ Fc =B>c d2- | d/c/=B/A/ G/F/E/D/ [G,Ec] G/>E/ CG | G/F/F (3F/A/G/(3F/E/D/ [G,Ec] G/>E/ CG | %76
 G/F/F (3F/A/G/(3F/E/D/ E/c/_A/F/ G/A/{/G}F/{/E}D/ | C2 D2 CD/(D/4>C/4) CF/(F/4>E/4) | %78
 EA/(A/4>G/4) (G/4E/4F/4D/4)PD CD/(D/4>C/4) CF/(F/4>E/4) | %79
 EA/(A/4>G/4) G/4e/4d/4=B/4c/4G/4A/4F/4 F3/2(3E/4D/4C/4{E} PD2 | Cccc !fermata!c2 Pd2 | c4 z4 |] %82
[M:3/4][Q:1/4=112]"^Minuetto" Pc3/2=B/4c/4 e2 d2 | cGEC G,E, | C,2 G2 F>G |{F} E4 D2 | CEEG G z | %87
 =B,DDF F z | EG_A=BcE |{F} E2 D4 ::[K:tenor] D4 E2 |{E} D4 E2 | D>E F2 E2 |{F} E2 D4 | %94
[K:alto] (DF_A=Bdf) | (fd=B_AFD) | E>A{/A} G>F{/F} E>D | C2 C,2 z2 :| %98
[M:3/4][Q:1/4=112]"^Trio" B4 c2 | B4 c2 |{c} B3 edc | c4 B2 | B6 | B6 | (GB_AGFE) | B2 B,2 z2 | %106
 (3ec=A (3ecA (3ecA | BB=AGF=E | (3_E=Ac (3ecA (3ecA | BfedcB | (B=A)(AG)(GF) | (FE)(EDE)F | %112
{/=A} (3GFE D2 C2 | B,6 ::[K:tenor] B,4 E2 |{E} D4 G2 | F4 B>c | B2 A2 G2 |[K:alto] e2 e2 d>e | %119
{d} c2 c2 B>c |{B} A2 A2 G>A |{G} F6 | (3AFD (3AFD (3AFD | EedcB=A | (3_AFD (3AFD (3AFD | %125
 (EGABcd) | (ed)(dc)(cB) | (BA)(AGA)B |{/d} (3cBA G2 F2 | E2 E,4 :| %130
V:2
 x8 | x8 | E D2 E F E2 x | x8 |[K:tenor] C =B,2 C D C2 D | E2 DC C/=B,/ B,2 z |[K:alto] E4 E4 | %7
 F G2 _A A/G/c/B/ G2 | E4 E4 | x8 | x8 | x4 G[K:tenor] B,/>B,/ B, x | x8 | x8 | x8 | x8 | x8 | %17
 x2[K:alto] x6 | x8 | x4 D2 D x | B/_A/F/D/ E/G/B/d/ eGFE | B/_A/F/D/ E/G/B/d/ eGFE | x8 | x8 | %24
 B/_A/F/D/ E/G/B/d/ eGFE | B/_A/F/D/ E/G/B/d/ eGFE | x8 | x8 :: x8 | x8 | x8 | x8 | x8 | x8 | x8 | %35
 x8 | x8 | x8 | x8 | x8 | x8 | x8 | x8 | E D2 E F E2 x | x8 |[K:tenor] C =B,2 C D C2 D | %46
 E2 DC C/=B,/ B,2 z |[K:alto] x8 | x8 | G/F/D/=B,/ C/E/G/=B/ cEDC | G/F/D/=B,/ C/E/G/=B/ cEDC | %51
 x8 | x8 | G/F/D/=B,/ C/E/G/=B/ cEDC | G/F/D/=B,/ C/E/G/=B/ cEDC | x8 | x8 :|[M:4/4] x8 | x8 | x8 | %60
 x5[K:tenor] (3C/=B,/C/{/C} =B, x |[K:alto] G/E/G/E/ A/F/A/F/ G/E/G/E/ A/F/A/F/ | G x7 | x8 | x8 | %65
 x8 | x8 | x8 :| x8 | x8 | x8 | x8 | x8 | x8 | x8 | x8 | x8 | x8 | x8 | x8 | x8 | x8 |][M:3/4] x6 | %83
 x6 | x6 | x6 | x6 | x6 | x6 | x6 ::[K:tenor] G,6 | G,6 | G,6 | G,6 |[K:alto] x6 | x6 | x6 | x6 :| %98
[M:3/4] E6 | E6 | E6 | E6 | A2 FGAA | A2 FGAA | x6 | x6 | x6 | x6 | x6 | x6 | x6 | x6 | x6 | x6 :: %114
[K:tenor] x6 | x6 | x6 | x6 |[K:alto] x6 | x6 | x6 | B,6 | x6 | x6 | x6 | x6 | x6 | x6 | x6 | x6 :| %130
V:3
 z C,E,C, D,D,D,C, | =B,,B,,B,,B,, C,C,C, z | G,,8- | G,,G,,=B,,C, (G,,2 G,,/)G,/D,/B,,/ | G,,8- | %5
 G,,G,,=B,,C, G,,G,/>_A,/ G,F, | G,G,G,G, A,A,G,G, | D, E,2 F, E,E,E,E, | G,G,G,G, A,A,G,G, | %9
 F,D,E,=A,, B,,C,D,E, | F,D,E,C, B,,C,D,E, | F,D,E,C, B,,B,,/>B,,/ B,, z | %12
 z _A,,A,,A,, (G,,A,,G,,A,,) | (B,,A,,G,,A,,) (B,,A,,G,,A,,) | G,,G,,G,,G,, (F,,G,,F,,G,,) | %15
 (A,,G,,F,,G,,) (A,,G,,F,,E,,) | D,,2 E,,2 B,,2 C,2 | D,E,F,G, A,A,/>G,/ A,A, | %18
 _G,(G,F,E,) z (G,F,E,) | z _G,F,E, D,2 D, !fermata!z | B,,3 _A,, G,,E,D,C, | B,,3 _A,, G,,E,D,E, | %22
 _A,,A,,A,,A,, A,,A,,=A,,A,, | B,,B,,B,,B,, E,/B,/_A,/G,/ F,/E,/D,/C,/ | B,,3 _A,, G,,E,D,C, | %25
 B,,3 _A,, G,,E,D,E, | _A,,A,,A,,A,, A,,A,,=A,,A,, | B,,B,,B,,B,, E,E,,E,, z :: G,E,A,E, B,G,G,E, | %29
 =E,E,E,E, F,2 _E,2 | D,2 z D, E,2 D,2 | E,2 z C, D,2 C,2 | =B,,2 z B,, C,2 z _A,, | %33
 F,,3 ^F,, G,,4 | G,,8 | G,,8 | G,,8 | G,,8 | _A,,4 G,,4 | ^F,,8 | G,,4 !fermata!z4 | %41
 z C,E,C, D,D,D,C, | =B,,B,,B,,B,, C,C,C,C, | G,,8- | G,,G,,=B,,C, G,,2- G,,/G,/D,/B,,/ | G,,8- | %46
 G,,G,,=B,,C, G,,G,,B,,G,, | _A,,4 G,,4 | =B,,4 C,2 E,C, | G,3 =F, E,C,=B,,_A,, | %50
 G,,3 F, E,C,=B,,C, | F,,F,,F,,F,, F,,F,,^F,,F,, | G,,G,,G,,G,, C,/G,/F,/E,/ D,/C,/=B,,/_A,,/ | %53
 G,,3 F, E,C,=B,,_A,, | G,,3 F, E,C,=B,,C, | F,,F,,F,,F,, F,,F,,^F,,F,, | %56
 G,,G,,G,,G,, C,G,,C,, z :|[M:4/4] [C,,G,,E,C] G,/>E,/ x E, D,2 D, x | %58
 [C,,G,,E,C] G,/>E,/ x E, D,2 D, x | %59
 (C,/C,/=B,,/G,,/) (C,/G,,/D,/G,,/) (_E,/C/=B,/F,/) (E,/C/B,/F,/) | %60
 (E,/4C,/4B,,/4C,/4D,/4E,/4F,/4D,/4) E,>^F, G,G,,G,, z | E,E, D,/F,/A,/F,/ E,E, D,/F,/A,/F,/ | %62
 E,E,E,E, E,E,G,E, | C,D,E,=A,, _A,,G,,/A,,/ B,,/C,/A,,/B,,/ | %64
 G,,/E,,/A,,/E,,/ G,,/E,,/C,/E,,/ B,,/E,,/A,,/E,,/ G,,/C,/4A,,/4B,,/B,,/ | %65
 E,,/G,,/A,,/E,,/ G,,/E,,/C,/E,,/ B,,/E,,/A,,/E,,/ G,, z | z4 B,,B,, E,/F,/4D,/4 E,/=A,,/ | %67
 B,,B,,B,,B,, E,,2 z2 :| EB,/>G,/ E,_D, C,D,C,_B,, | _A,,B,,C,C, F,F,,F,, z | %70
 F,F, F,F, =E,E, _E,E, | D,D, _D,D, C,C, _B,,_A,, | G,,A,, =E,F, C, C,2 _B,, | %73
 _A,,2 A,,2 G,,2 G,,/G,/D,/=B,,/ | G,,G,, =B,,G,, C, G,/>E,/ x E, | D,2 D, x C, G,/>E,/ x E, | %76
 D,2 D, x C,D,E,F, | !//!G,2 !//!G,,2 C,/E,/F,/C,/ E,/C,/A,/C,/ | %78
 G,/C,/F,/C,/ E,/A,/4F,/4G,/G,,/ C,/E,/F,/C,/ G,/C,/A,/C,/ | %79
 G,/C,/F,/C,/ E,/F,/4D,/4E,/F,/ !//!G,2 !//!G,,2 | C,2 z/ E,/F,/^F,/ !fermata!G,4 | C,4 z4 |] %82
[M:3/4] C,>E, G,2 F,2 | E,2 z2 z2 | E,,2 E,2 D,2 |{D,} C,4 =B,,2 | C,2 z C,E,C, | %87
 G,,2 z G,,=B,,G,, | C,E,F,D,E,C, | G,,2 G,,4 :: =B,4 C2 |{C} =B,4 C2 | =B,>C D2 C2 | %93
 C2 =B,2 G,D, | D,6 | D,6 | C,>F, G,2 G,,2 | C,2 C,,2 z2 :|[M:3/4] G,4 A,2 | G,4 A,2 | %100
{A,} G,3 CB,A, | A,4 G,2 | F,2 (D,E,F,F,) | F,2 (D,E,F,F,) | (E,G,F,E,D,C,) | (B,,B,,C,D,E,F,) | %106
 _G,2 F,2 E,2 | D,2 z2 B,,2 | _G,2 F,2 E,2 | D,DCB,A,G, | (G,F,)(F,E,)(E,D,) | (D,C,)(C,B,,C,D,) | %112
 E,2 F,2 F,,2 | B,,6 :: z6 | B,,4 E,2 | D,4 G,>A, | G,2 F,2 E,2 | C2 C2 B,>C |{B,} A,2 A,2 G,>A, | %120
{G,} F,2 F,2 E,>F, |{E,} D,6 | _C,2 B,,2 A,,2 | G,,2 z2 E,,2 | _C,2 B,,2 A,,2 | (G,,E,F,G,A,B,) | %126
 (CB,)(B,A,)(A,G,) | (G,F,)F,E,F,G, | A,2 B,2 B,,2 | E,2 E,,4 :| %130
V:4
 x8 | x8 | x8 | x8 | x8 | x8 | x8 | x8 | x8 | x8 | x8 | x8 | x8 | x8 | x8 | x8 | x8 | x8 | x8 | %19
 x8 | x8 | x8 | x8 | x8 | x8 | x8 | x8 | x8 :: x8 | x8 | B,,2 x6 | _A,,2 x6 | G,,2 x6 | x8 | x8 | %35
 x8 | x8 | x8 | x8 | x8 | x8 | x8 | x8 | x8 | x8 | x8 | x8 | x8 | x8 | x8 | x8 | x8 | x8 | x8 | %54
 x8 | x8 | x8 :|[M:4/4] x2 C,C, C,C, =B,,G,, | x2 C,C, C,C, =B,,G,, | x8 | x8 | x8 | x8 | x8 | x8 | %65
 x8 | x8 | x8 :| x8 | x8 | x8 | x8 | x8 | x8 | x6 C,C, | C,C, =B,,G,, x2 C,C, | C,C, =B,,B,, x4 | %77
 x8 | x8 | x8 | x8 | x8 |][M:3/4] x6 | x6 | x6 | x6 | x6 | x6 | x6 | x6 :: x6 | x6 | x6 | x6 | %94
 =B,,6 | =B,,6 | x6 | x6 :|[M:3/4] x6 | x6 | x6 | x6 | x6 | x6 | x6 | x6 | x6 | x6 | x6 | x6 | x6 | %111
 x6 | x6 | x6 :: x6 | x6 | x6 | x6 | x6 | x6 | x6 | x6 | x6 | x6 | x6 | x6 | x6 | x6 | x6 | x6 :| %130

